src/svg/icon-message.svg

<svg width="12" height="12" viewBox="0 0 12 12" fill="none" xmlns="http://www.w3.org/2000/svg">
<path fill-rule="evenodd" clip-rule="evenodd" d="M9.92857 2H2.07143C1.47969 2 1 2.42736 1 2.95455V8.04545C1 8.57264 1.47969 9 2.07143 9H4.66667L6 11L7.33333 9H9.92857C10.5203 9 11 8.57264 11 8.04545V2.95455C11 2.42736 10.5203 2 9.92857 2ZM8.49993 6H3.50007C3.2241 6 3 6.22364 3 6.5C3 6.77594 3.2241 7 3.50007 7H8.49993C8.7759 7 9 6.77594 9 6.5C9 6.22364 8.7759 6 8.49993 6ZM3.71437 5H7.28563C7.67987 5 8 4.77636 8 4.5C8 4.22406 7.67987 4 7.28563 4H3.71437C3.32013 4 3 4.22406 3 4.5C3 4.77636 3.32013 5 3.71437 5Z" fill="currentColor"/>
</svg>

<svg xmlns="http://www.w3.org/2000/svg" width="12" height="12" fill="none" viewBox="0 0 12 12"><path fill="currentColor" fill-rule="evenodd" d="M9.929 2H2.07C1.48 2 1 2.427 1 2.955v5.09C1 8.573 1.48 9 2.071 9h2.596L6 11l1.333-2H9.93c.59 0 1.07-.427 1.07-.955v-5.09C11 2.427 10.52 2 9.929 2m-1.43 4H3.5a.5.5 0 1 0 0 1h5a.5.5 0 0 0 0-1M3.715 5h3.572C7.68 5 8 4.776 8 4.5S7.68 4 7.286 4H3.714C3.32 4 3 4.224 3 4.5s.32.5.714.5" clip-rule="evenodd"/></svg>
